Numix-Light-GalliumOS/24/panel/kazam-paused.svg

<?xml version="1.0" encoding="UTF-8" standalone="no"?>
<!-- Created with Inkscape (http://www.inkscape.org/) -->

<svg
   xmlns:dc="http://purl.org/dc/elements/1.1/"
   xmlns:cc="http://creativecommons.org/ns#"
   xmlns:rdf="http://www.w3.org/1999/02/22-rdf-syntax-ns#"
   xmlns:svg="http://www.w3.org/2000/svg"
   xmlns="http://www.w3.org/2000/svg"
   xmlns:sodipodi="http://sodipodi.sourceforge.net/DTD/sodipodi-0.dtd"
   xmlns:inkscape="http://www.inkscape.org/namespaces/inkscape"
   id="svg2"
   version="1.1"
   inkscape:version="0.91 r"
   width="24"
   height="24"
   viewBox="0 0 24 24"
   sodipodi:docname="kazam-paused.svg">
  <metadata
     id="metadata8">
    <rdf:RDF>
      <cc:Work
         rdf:about="">
        <dc:format>image/svg+xml</dc:format>
        <dc:type
           rdf:resource="http://purl.org/dc/dcmitype/StillImage" />
        <dc:title />
      </cc:Work>
    </rdf:RDF>
  </metadata>
  <defs
     id="defs6" />
  <sodipodi:namedview
     pagecolor="#ffffff"
     bordercolor="#666666"
     borderopacity="1"
     objecttolerance="10"
     gridtolerance="10"
     guidetolerance="10"
     inkscape:pageopacity="0"
     inkscape:pageshadow="2"
     inkscape:window-width="1366"
     inkscape:window-height="747"
     id="namedview4"
     showgrid="true"
     inkscape:zoom="10.727273"
     inkscape:cx="11.17625"
     inkscape:cy="15.963622"
     inkscape:window-x="0"
     inkscape:window-y="21"
     inkscape:window-maximized="1"
     inkscape:current-layer="svg2">
    <inkscape:grid
       type="xygrid"
       id="grid4138" />
  </sodipodi:namedview>
  <path
     style="color:#000000;font-style:normal;font-variant:normal;font-weight:normal;font-stretch:normal;font-size:medium;line-height:normal;font-family:sans-serif;text-indent:0;text-align:start;text-decoration:none;text-decoration-line:none;text-decoration-style:solid;text-decoration-color:#000000;letter-spacing:normal;word-spacing:normal;text-transform:none;direction:ltr;block-progression:tb;writing-mode:lr-tb;baseline-shift:baseline;text-anchor:start;white-space:normal;clip-rule:nonzero;display:inline;overflow:visible;visibility:visible;opacity:1;isolation:auto;mix-blend-mode:normal;color-interpolation:sRGB;color-interpolation-filters:linearRGB;solid-color:#000000;solid-opacity:1;fill:#353535;fill-opacity:1;fill-rule:evenodd;stroke:none;stroke-width:1;stroke-linecap:butt;stroke-linejoin:round;stroke-miterlimit:4;stroke-dasharray:none;stroke-dashoffset:0;stroke-opacity:1;color-rendering:auto;image-rendering:auto;shape-rendering:auto;text-rendering:auto;enable-background:accumulate"
     d="M 3,5 C 2.7238691,5.0000276 2.5000276,5.2238691 2.5,5.5 l 0,13 c 2.76e-5,0.276131 0.2238691,0.499972 0.5,0.5 l 12,0 c 0.276131,-2.8e-5 0.499972,-0.223869 0.5,-0.5 l 0,-3.191406 5.277344,2.638672 C 21.109563,18.112428 21.499627,17.871009 21.5,17.5 l 0,-11 C 21.499627,6.1289908 21.109563,5.8875729 20.777344,6.0527344 L 15.5,8.6914062 15.5,5.5 C 15.499972,5.2238691 15.276131,5.0000276 15,5 L 3,5 Z M 6.3730469,9 7.6269531,9 C 7.8330961,8.999862 8.0002046,9.112746 8,9.251953 L 8,14.75 C 7.9990094,14.888635 7.8322511,15.000139 7.6269531,15 L 6.3730469,15 C 6.1677488,15.000139 6.0009907,14.888635 6,14.75 L 6,9.251953 C 5.9997954,9.112746 6.1669037,8.9998619 6.3730469,9 Z m 4.0000001,0 1.253906,0 C 11.833096,8.9998619 12.000204,9.112746 12,9.251953 L 12,14.75 c -9.91e-4,0.138635 -0.167749,0.250139 -0.373047,0.25 l -1.253906,0 C 10.167749,15.000139 10.000991,14.888635 10,14.75 L 10,9.251953 C 9.999795,9.112746 10.166904,8.9998618 10.373047,9 Z"
     id="path4140"
     inkscape:connector-curvature="0" />
</svg>

<svg xmlns="http://www.w3.org/2000/svg" viewBox="0 0 24 24">
 <path d="m 3 5 c -0.276 0 -0.5 0.224 -0.5 0.5 l 0 13 c 0 0.276 0.224 0.5 0.5 0.5 l 12 0 c 0.276 0 0.5 -0.224 0.5 -0.5 l 0 -3.191 5.277 2.639 c 0.332 0.165 0.722 -0.076 0.723 -0.447 l 0 -11 c 0 -0.371 -0.39 -0.612 -0.723 -0.447 l -5.277 2.639 0 -3.191 c 0 -0.276 -0.224 -0.5 -0.5 -0.5 l -12 0 m 3.373 4 1.254 0 c 0.206 0 0.373 0.113 0.373 0.252 l 0 5.498 c -0.001 0.139 -0.168 0.25 -0.373 0.25 l -1.254 0 c -0.205 0 -0.372 -0.111 -0.373 -0.25 l 0 -5.498 c 0 -0.139 0.167 -0.252 0.373 -0.252 m 4 0 1.254 0 c 0.206 0 0.373 0.113 0.373 0.252 l 0 5.498 c -0.001 0.139 -0.168 0.25 -0.373 0.25 l -1.254 0 c -0.205 0 -0.372 -0.111 -0.373 -0.25 l 0 -5.498 c 0 -0.139 0.167 -0.252 0.373 -0.252" mix-blend-mode="normal" isolation="auto" white-space="normal" solid-opacity="1" solid-color="#000000" style="visibility:visible;shape-rendering:auto;color-interpolation-filters:linearRGB;fill:#353535;opacity:1;image-rendering:auto;fill-opacity:1;stroke:none;display:inline;color:#000;fill-rule:evenodd;color-rendering:auto;color-interpolation:sRGB"/>
</svg>
